svgs/sharp-regular/road-spikes.svg

<svg xmlns="http://www.w3.org/2000/svg" viewBox="0 0 640 512"><!--! Font Awesome Pro 6.6.0 by @fontawesome - https://fontawesome.com License - https://fontawesome.com/license (Commercial License) Copyright 2024 Fonticons, Inc. --><path d="M80 212.2L80 304l57.4 0L80 212.2zM64 96l16 25.6 80 128L160 144l0-8.6 0-19.4 0-20 32 0 16 25.6 80 128L288 144l0-8.6 0-19.4 0-20 32 0 16 25.6 80 128L416 144l0-8.6 0-19.4 0-20 32 0 16 25.6L578 304l30 48-56.6 0L480 352l-16 0-40.6 0-7.4 0-64 0-16 0-40.6 0-7.4 0-64 0-16 0-40.6 0-7.4 0-80 0-48 0 0-48 0-160 0-8.6L32 116l0-20 32 0zM0 400l24 0 592 0 24 0 0 48-24 0L24 448 0 448l0-48zm208-96l57.4 0L208 212.2l0 91.8zm128-91.8l0 91.8 57.4 0L336 212.2zM464 304l57.4 0L464 212.2l0 91.8z"/></svg>

<svg xmlns="http://www.w3.org/2000/svg" viewBox="0 0 640 512"><!--! Font Awesome Pro 6.4.2 by @fontawesome - https://fontawesome.com License - https://fontawesome.com/license (Commercial License) Copyright 2023 Fonticons, Inc. --><path d="M80 212.2V304h57.4L80 212.2zM64 96l16 25.6 80 128V144v-8.6V116 96h32l16 25.6 80 128V144v-8.6V116 96h32l16 25.6 80 128V144v-8.6V116 96h32l16 25.6L578 304l30 48H551.4 480 464 423.4 416 352 336 295.4 288 224 208 167.4 160 80 32V304 144v-8.6V116 96H64zM0 400H24 616h24v48H616 24 0V400zm208-96h57.4L208 212.2V304zm128-91.8V304h57.4L336 212.2zM464 304h57.4L464 212.2V304z"/></svg>
